data/tiles/web.svg

<?xml version="1.0" encoding="UTF-8" standalone="no"?>
<!-- Created with Inkscape (http://www.inkscape.org/) -->
<svg
   xmlns:svg="http://www.w3.org/2000/svg"
   xmlns="http://www.w3.org/2000/svg"
   version="1.0"
   width="32"
   height="32"
   id="svg2">
  <defs
     id="defs4" />
  <g
     id="layer1">
    <path
       d="M 18.8125,5.40625 L 9.4375,6.125 L 6.71875,18.15625 L 11.5,26.28125 L 22.9375,26.34375 L 26.34375,15.59375 L 25.28125,8.21875 L 18.8125,5.40625 z"
       id="path2789"
       style="fill:none;fill-opacity:1;fill-rule:evenodd;stroke:#000000;stroke-width:1px;stroke-linecap:butt;stroke-linejoin:miter;stroke-opacity:1" />
    <path
       d="M 19.5625,1.03125 L 5.96875,2.09375 L 2.15625,18.875 L 9.03125,30.5625 L 26.0625,30.65625 L 30.71875,15.96875 L 29.1875,5.21875 L 19.5625,1.03125 z"
       id="path2787"
       style="fill:none;fill-opacity:1;fill-rule:evenodd;stroke:#000000;stroke-width:1px;stroke-linecap:butt;stroke-linejoin:miter;stroke-opacity:1" />
    <path
       d="M 5.9821429,1.8214286 L 16.517857,16.196429 L 25.982143,30.75"
       id="path4571"
       style="fill:none;fill-rule:evenodd;stroke:#000000;stroke-width:1px;stroke-linecap:butt;stroke-linejoin:miter;stroke-opacity:1" />
    <path
       d="M 8.75,30.482143 L 16.339286,16.017857 L 29.285714,5.5714286"
       id="path4573"
       style="fill:none;fill-rule:evenodd;stroke:#000000;stroke-width:1px;stroke-linecap:butt;stroke-linejoin:miter;stroke-opacity:1" />
    <path
       d="M 19.464286,0.92857143 L 16.25,15.660714"
       id="path4575"
       style="fill:none;fill-rule:evenodd;stroke:#000000;stroke-width:1px;stroke-linecap:butt;stroke-linejoin:miter;stroke-opacity:1" />
    <path
       d="M 30.535714,16.107143 L 16.517857,16.017857"
       id="path4577"
       style="fill:none;fill-rule:evenodd;stroke:#000000;stroke-width:1px;stroke-linecap:butt;stroke-linejoin:miter;stroke-opacity:1" />
    <path
       d="M 1.9642857,18.696429 L 16.428571,15.75"
       id="path4579"
       style="fill:none;fill-rule:evenodd;stroke:#000000;stroke-width:1px;stroke-linecap:butt;stroke-linejoin:miter;stroke-opacity:1" />
  </g>
</svg>

<?xml version="1.0" encoding="UTF-8" standalone="no"?>
<!-- Created with Inkscape (http://www.inkscape.org/) -->
<svg id="svg2" xmlns="http://www.w3.org/2000/svg" height="32" width="32" version="1.0">
 <g id="layer1" stroke-linejoin="miter" stroke="#000" stroke-linecap="butt" stroke-width="1px" fill="none">
  <path id="path1" d="M18.812,5.4062l-9.3745,0.7188-2.7187,12.031,4.7812,8.125,11.438,0.063,3.406-10.75-1.063-7.3752-6.469-2.8126z"/>
  <path id="path2" d="M19.562,1.0312l-13.593,1.0626-3.8126,16.781,6.875,11.687,17.031,0.094,4.657-14.687-1.531-10.75-9.626-4.1876z"/>
  <path id="path3" d="M5.9821,1.8214l10.536,14.375,9.464,14.554"/>
  <path id="path4" d="M8.75,30.482l7.589-14.464,12.947-10.447"/>
  <path id="path5" d="M19.464,0.92857l-3.214,14.732"/>
  <path id="path6" d="M30.536,16.107l-14.018-0.089"/>
  <path id="path7" d="M1.9643,18.696l14.465-2.946"/>
 </g>
</svg>
